X: 338
T: Kishinever Sirba
R: sirba
O:
Q: 1/4=150
B: German Goldenshteyn "Shpilt klezmorimlach klingen zoln di gesalach" New York 2003 v.3 #38
Z: 2013 John Chambers <jc:trillian.mit.edu>
M: 2/4
L: 1/8
K: C
|:\
EG cd | ecea | g3a | g4 | EG ce | g^gae | g3^f | =f4 |
GBde | fdef | b4 | a4 | f2d>f | (3(bag) (3(fed) | (3(efg) (3(fed) | (3(cBA) (3(GFE) |
EG cd | ecea | g3a | g4 | Gc eg | _baea | g3^f | =f4 |
Az"^>"d2 | ((3fed) ((3cBA) | Gz"^>"c2 | (3(edc) (3(BAG) | f2d>f | (3(bag) (3(fed) | (3(efg) (3(fed) |[1 c2z2 :|[2 c c'b_b ||
|:\
{=b}az {b}az | {b}az {b}az | {b}a3b | c'bc'a | {^f}gz {f}gz | {^f}gz {f}gz | {^f}g3b | e4 |
zfdf | GB df | zece | EG ce | f2d>f | ((3bag) ((3fed) | c4- |[1 c c'b_b :|[2 c efg ||
|:\
a2 (3(c'ba) | ea (3(c'ba) | ea (3(c'ba) | e3d | (3(edc) (3(cBA) | e4- | eefg | a2 ((3c'ba) |
((3baf) ((3fed) | e2 (3(gfe) | (3(edc) (3(cBA) | GB df | e3d | ((3edc) (3(cBA) | A4- |[1 A efg :|[2 Az z2 |]
